src/components/Icon/icons/bulb.svg

<svg xmlns="http://www.w3.org/2000/svg" width="100%" height="100%" viewBox="0 0 20 20" fill="none">
  <g clip-path="url(#clip0_124_1082)">
    <path d="M12.7333 11.2472C12.237 11.8129 11.6327 12.2757 10.9526 12.6113V14.5399C10.9526 14.7104 10.8848 14.8739 10.7643 14.9944C10.6437 15.115 10.4802 15.1827 10.3097 15.1827H6.45255C6.28206 15.1827 6.11854 15.115 5.99798 14.9944C5.87743 14.8739 5.8097 14.7104 5.8097 14.5399V12.6113C4.455 11.9351 3.41935 10.7548 2.925 9.3237C2.43064 7.8926 2.51698 6.32473 3.16547 4.95656C3.81397 3.58838 4.97295 2.52894 6.3937 2.00557C7.81446 1.48221 9.38376 1.53663 10.7648 2.15716M5.8097 18.3572H10.9526" stroke="currentColor" stroke-width="1.5" stroke-linecap="round" stroke-linejoin="round"/>
    <path d="M11.4332 6.05803C10.9819 5.9796 10.9819 5.3316 11.4332 5.25317C12.232 5.11345 12.9712 4.73936 13.5568 4.17846C14.1424 3.61756 14.548 2.89518 14.722 2.10317L14.749 1.97717C14.8468 1.53103 15.4819 1.52846 15.5835 1.97331L15.6169 2.1186C15.7965 2.90755 16.2054 3.62575 16.7922 4.18283C17.3791 4.73991 18.1175 5.11097 18.9148 5.24931C19.3686 5.32903 19.3686 5.9796 18.9148 6.05931C18.1178 6.19789 17.3796 6.56906 16.793 7.12612C16.2064 7.68318 15.7977 8.40126 15.6182 9.19003L15.5848 9.33531C15.4832 9.78017 14.848 9.7776 14.7503 9.33146L14.7246 9.20674C14.5504 8.41438 14.1444 7.69175 13.5583 7.13081C12.9722 6.56988 12.2324 6.19728 11.4332 6.05803Z" stroke="currentColor" stroke-width="1.5" stroke-linecap="round" stroke-linejoin="round"/>
  </g>
  <defs>
    <clipPath id="clip0_124_1082">
      <rect width="20" height="20" fill="white"/>
    </clipPath>
  </defs>
</svg>

<svg xmlns="http://www.w3.org/2000/svg" fill="none" viewBox="0 0 20 20"><g stroke="currentColor" stroke-linecap="round" stroke-linejoin="round" stroke-width="1.5" clip-path="url(#a)"><path d="M12.733 11.247a5.8 5.8 0 0 1-1.78 1.364v1.929a.643.643 0 0 1-.643.643H6.453a.643.643 0 0 1-.643-.643V12.61a5.786 5.786 0 0 1 4.955-10.454m-4.955 16.2h5.143"/><path d="M11.433 6.058c-.451-.078-.451-.726 0-.805a4.09 4.09 0 0 0 3.289-3.15l.027-.126c.098-.446.733-.449.835-.004l.033.146a4.1 4.1 0 0 0 3.298 3.13c.454.08.454.73 0 .81a4.1 4.1 0 0 0-3.297 3.131l-.033.145c-.102.445-.737.443-.835-.004l-.025-.124a4.09 4.09 0 0 0-3.292-3.149"/></g><defs><clipPath id="a"><path fill="#fff" d="M0 0h20v20H0z"/></clipPath></defs></svg>
